img/svg/small-letter.svg

<svg width="139" height="135" viewBox="0 0 139 135" fill="none" xmlns="http://www.w3.org/2000/svg">
<path opacity="0.55" d="M20.4941 0.81958L0.759112 114.174L118.775 134.721L138.51 21.3662L20.4941 0.81958ZM104.775 115.582L78.3283 110.977L83.8586 79.2123L64.2149 98.5354L52.5023 73.6326L46.9517 105.515L20.3927 100.891L34.4833 19.9567L60.93 24.561L72.9283 49.1518L92.1944 30.0042L118.866 34.6476L104.775 115.582Z" fill="#F9F7F1"/>
</svg>

<svg width="139" height="135" viewBox="0 0 139 135" fill="none" xmlns="http://www.w3.org/2000/svg"><path opacity=".55" d="M20.494.82L.76 114.174l118.016 20.547L138.51 21.366 20.494.82zm84.281 114.762l-26.447-4.605 5.53-31.765-19.643 19.323-11.713-24.902-5.55 31.882-26.56-4.624 14.091-80.934L60.93 24.56l11.998 24.59 19.266-19.147 26.672 4.644-14.091 80.934z" fill="#F9F7F1"/></svg>
